X:1
T:The Entertainer
%%score 1 2
L:1/8
M:4/4
K:Bb
V:1 treble transpose=-9 nm="Alto Saxophone" snm="A. Sax."
V:2 bass nm="Bassoon" snm="Bsn."
V:1
[K:G]!pp! (ab)ge- ef .d2 | z8 | (AB)GE- EFE_E | !>!.D2 z2 !>!.d'2 (A^A) | (B g2) (B g2) (Bg-) | %5
 g4- gga^a | bgab- b(f a2) | g6 z2 | G2 z2 B,2 z2 | C2 E2 B,2 E2 | A2 ^C2 E2 ^c2 | d2 D2 E2 A^A | %12
 (B g2) (B g2) (Bg-) | g4- gga^a | bgab- b(f a2) | g6 ga | bgab- bgag | bgab- bgag | %18
 bgab- b(f a2) | g4- gBc^c | d2 ed- dBc^c | B2 cB B z G2 | C2 C2 C2 C2 | B,2 z2 D2 z2 | %24
 d2 ed- dBc^c | d2 ed- dde^e | f f2 f- fe^cA | f2 !>!c2 !>!B2 !>!A2 | B2 cB- BGA^A | %29
 B2 cB- B z z2 | efga baga | g4- gd^cd | g2 eg- gege | dgbd'- d'bgd | e2 g2 b a2 g- | %35
 g4 z2 A^A!D.C.! |] %36
V:2
 z8 | C,D,B,,G,,- G,,A,, .F,,2 | C,D,B,,G,,- G,,A,,G,,_G,, | F,, z z2 !>!.F,,2 z2 | %4
 B,,2 z2 D,,2 z2 | E,,2 z2 D,,D,,E,,^E,, | F,,D,,E,,F,,- F,,E,, A,,2 | B,,2 F,,2 B,,2 (C,^C,) | %8
 (D, B,2) (D, B,2) (D,B,-) | B,6 G,F, | ^E,G,B,D- DCB,G, | C6 A,,2 | B,,2 z2 D,,2 z2 | %13
 E,,2 z2 D,,D,,E,,^E,, | F,,D,,E,,F,,- F,,E,, A,,2 | B,,2 F,,2 B,,2 z2 | B,,2 B,,2 =A,,2 B,,2 | %17
 G,,2 B,,2 _G,,2 B,,2 | F,,2 B,,2 F,,2 A,,2 | B,,2 F,,2 B,,B,,C,^C, | D,2 E,D,- D,B,,C,^C, | %21
 F,2 G,F,- F,DB,F, | G,A,B,C DCB,C | F,2 D,E, G,F,D,E, | D,2 E,D,- D,B,,C,^C, | %25
 D,2 E,D,- D, z B,2 | C,2 F,2 C,2 B,2 | F,4- F,D,E,^E, | F,2 G,F,- F,D,E,^E, | F,2 G,F,- F,DB,F, | %30
 G,A,B,C DA,F,C, | F,,2 B,,2 B,,2 D,,2 | E,,2 E,,2 ^E,,2 ^E,,2 | F,,2 F,,2 F,,2 F,,2 | %34
 C,2 ^E,,2 F,,2 A,,2 | B,,2 F,,2 B,,2 z2 |] %36

